svgs/sharp-light/integral.svg

<svg xmlns="http://www.w3.org/2000/svg" viewBox="0 0 320 512"><!--! Font Awesome Pro 6.6.0 by @fontawesome - https://fontawesome.com License - https://fontawesome.com/license (Commercial License) Copyright 2024 Fonticons, Inc. --><path d="M144 0l16 0L272 0l16 0 0 16 0 80 0 16-32 0 0-16 0-64-80 0 0 464 0 16-16 0L48 512l-16 0 0-16 0-80 0-16 32 0 0 16 0 64 80 0 0-464 0-16z"/></svg>

<svg xmlns="http://www.w3.org/2000/svg" viewBox="0 0 320 512"><!--! Font Awesome Pro 6.4.2 by @fontawesome - https://fontawesome.com License - https://fontawesome.com/license (Commercial License) Copyright 2023 Fonticons, Inc. --><path d="M144 0h16H272h16V16 96v16H256V96 32H176V496v16H160 48 32V496 416 400H64v16 64h80V16 0z"/></svg>
